src/assets/svgs/refactor/bridge-network-mainnet-inactive.svg

<svg fill="none" height="46" viewBox="0 0 46 46" width="46" xmlns="http://www.w3.org/2000/svg"><path d="m23 46c12.7025 0 23-10.2975 23-23s-10.2975-23-23-23-23 10.2975-23 23 10.2975 23 23 23z" fill="#f0f0f0"/><path d="m23.4753 28.7289 4.8752-1.7285c.2082-.0692.4295.0553.4942.2777.0352.1196.0176.25-.0462.3548l-4.9085 7.5267c-.349.5238-1.0293.6474-1.5199.2748-.1-.0751-.187-.168-.2573-.2748l-4.9085-7.5267c-.1185-.1957-.0667-.4566.1157-.5831.0981-.0682.2203-.086.3323-.0494l4.8752 1.7285c.3073.1126.6405.1126.9478 0zm6.0229-5.4939c.3101-.1117.4767-.4704.3721-.8015-.0111-.0356-.0259-.0702-.0426-.1028l-5.8785-11.3959c-.3018-.5593-.971-.751-1.4939-.4289-.1667.1028-.3055.2511-.4018.4289l-5.8785 11.3959c-.1574.3064-.0537.6908.2332.8589.0306.0177.063.0336.0963.0454l6.4969 2.3314z" fill="#afafaf"/></svg>

<svg width="46" height="46" viewBox="0 0 46 46" fill="none" xmlns="http://www.w3.org/2000/svg">
<path d="M23 46C35.7025 46 46 35.7025 46 23C46 10.2975 35.7025 0 23 0C10.2975 0 0 10.2975 0 23C0 35.7025 10.2975 46 23 46Z" fill="#F0F0F0"/>
<path d="M23.4753 28.7289L28.3505 27.0004C28.5587 26.9312 28.78 27.0557 28.8447 27.2781C28.8799 27.3977 28.8623 27.5281 28.7985 27.6329L23.89 35.1596C23.541 35.6834 22.8607 35.807 22.3701 35.4344C22.2701 35.3593 22.1831 35.2664 22.1128 35.1596L17.2043 27.6329C17.0858 27.4372 17.1376 27.1763 17.32 27.0498C17.4181 26.9816 17.5403 26.9638 17.6523 27.0004L22.5275 28.7289C22.8348 28.8415 23.168 28.8415 23.4753 28.7289ZM29.4982 23.235C29.8083 23.1233 29.9749 22.7646 29.8703 22.4335C29.8592 22.3979 29.8444 22.3633 29.8277 22.3307L23.9492 10.9348C23.6474 10.3755 22.9782 10.1838 22.4553 10.5059C22.2886 10.6087 22.1498 10.757 22.0535 10.9348L16.175 22.3307C16.0176 22.6371 16.1213 23.0215 16.4082 23.1896C16.4388 23.2073 16.4712 23.2232 16.5045 23.235L23.0014 25.5664L29.4982 23.235Z" fill="#AFAFAF"/>
</svg>
